packages/icons/src/cookie.svg

<svg width="15" height="15" viewBox="0 0 15 15" fill="none" xmlns="http://www.w3.org/2000/svg">
  <path
    fill-rule="evenodd"
    clip-rule="evenodd"
    d="M12.0697 1.76746C12.4807 1.21947 11.4605 0.454311 11.0495 1.0023C10.6385 1.55028 11.6588 2.31544 12.0697 1.76746ZM8.39263 1.07811C7.15585 0.950602 5.7823 1.16348 4.58433 1.70937C3.38552 2.25563 2.32735 3.15309 1.78844 4.41832C1.37574 5.38724 1.01715 6.28113 1.00088 7.44354C0.984724 8.59844 1.30522 9.96898 2.13174 11.928C2.61142 13.0649 4.03963 13.5446 5.13895 13.8079C6.40836 14.1119 7.80857 14.1914 8.6644 14.0742C9.36515 13.9782 10.1448 13.8284 10.7987 13.297C11.8977 12.4039 12.9009 11.3955 13.4994 10.3393C14.104 9.27221 14.3256 8.09207 13.7216 6.95324C13.5628 6.65373 13.316 6.57734 13.0412 6.4923C12.9374 6.46016 12.8295 6.42678 12.7209 6.37966C11.6211 5.90234 10.9646 5.34963 10.9135 5.02876C10.8656 4.72808 10.9221 4.51463 10.9811 4.29181C11.0129 4.17199 11.0453 4.04947 11.0626 3.90922C11.0838 3.73737 11.0814 3.33319 10.6996 3.12761C10.4048 2.96888 10.2164 2.65843 10.0407 2.36904C9.99742 2.29775 9.95492 2.22773 9.9118 2.16158C9.62634 1.72367 9.20769 1.16213 8.39263 1.07811ZM4.99899 2.61935C3.96483 3.09058 3.12554 3.83097 2.70846 4.81018C2.29808 5.77368 2.01406 6.50873 2.00079 7.45753C1.98741 8.41385 2.25043 9.6368 3.0531 11.5393C3.39181 12.3421 4.62167 12.6557 5.37186 12.8354C6.5493 13.1174 7.822 13.1802 8.52868 13.0834C9.21271 12.9897 9.74568 12.8642 10.1681 12.5209C11.229 11.6587 12.121 10.7435 12.6293 9.84635C12.9349 9.30709 13.5141 7.7028 12.6292 7.3873C10.7539 6.71875 10.262 6.06669 9.99011 5.41268C9.80915 4.97744 9.82868 4.52282 9.95741 4.07885L9.95741 4.07884C9.97662 4.0126 9.99538 3.94791 10.0334 3.88882C9.81857 3.73676 9.6515 3.55195 9.51464 3.3715C9.42876 3.25828 9.3469 3.12099 9.26197 2.97856C9.01866 2.57052 8.75018 2.12027 8.29008 2.07283C7.22889 1.96343 6.03398 2.14772 4.99899 2.61935ZM13.2081 3.77471C13.441 3.22671 12.4547 2.63606 12.0822 3.10163C11.5817 3.72732 12.9029 4.49281 13.2081 3.77471ZM14.3672 2.26031C14.9668 2.27493 15.1551 1.11603 14.5718 0.949371C13.8076 0.731026 13.5918 2.24139 14.3672 2.26031ZM14.2857 5.09098C14.8644 5.10004 15.0462 4.38222 14.4832 4.27899C13.7455 4.14375 13.5373 5.07927 14.2857 5.09098ZM6.9075 4.28672C6.46898 4.66754 6.0522 4.15185 5.97983 3.7365C5.86848 3.09744 6.33696 2.56856 6.94823 2.91156C7.43344 3.18382 7.26678 3.97471 6.9075 4.28672ZM4.94455 5.88184C5.40885 5.41754 4.59567 4.57013 4.11425 5.05154C3.83338 5.33242 4.00936 5.65376 4.23744 5.88184C4.43271 6.0771 4.74929 6.0771 4.94455 5.88184ZM6.97716 6.71984C7.31181 7.38914 8.48804 6.79159 7.99413 6.14788C7.86519 5.97983 7.68657 5.9494 7.62145 5.94207C7.21217 5.89601 6.76349 6.2925 6.97716 6.71984ZM6.98798 8.72461C7.14066 9.1188 7.51122 9.3187 7.91915 9.1633C8.27434 9.02799 8.33186 8.39689 8.17175 8.07427C8.02331 7.77514 7.63956 7.67793 7.33747 7.79417C6.98512 7.92976 6.85672 8.38708 6.98576 8.71889L6.98798 8.72461ZM10.3885 8.84081C10.7575 8.6566 11.4617 8.82771 11.4617 9.31199C11.4617 9.71286 10.9587 10.2165 10.5634 10.2826C10.1813 10.3465 9.70515 9.97581 9.76648 9.57718C9.81445 9.26539 10.1217 8.97401 10.3885 8.84081ZM7.56704 10.8432C7.33461 10.7502 7.14353 10.8601 7.11437 10.8769L7.11279 10.8778C6.90782 10.9949 6.71383 11.2439 6.6747 11.4842C6.59018 12.0034 7.13199 12.1239 7.52661 12.0987C8.2074 12.0553 8.06547 11.0426 7.56704 10.8432ZM4.8805 10.8932C5.0674 10.7723 5.15658 10.5363 5.08293 10.3153C4.93046 9.79687 4.3246 9.71252 3.96561 10.1297C3.79336 10.3299 3.80749 10.6274 3.99214 10.8105L3.99495 10.814L3.9979 10.8176C4.22025 11.0942 4.63624 11.1857 4.8805 10.8932ZM3.04695 7.81318C3.33147 8.0977 3.60077 8.15067 3.98443 8.05859C4.60826 7.90887 4.13814 6.24299 3.047 6.87296C2.70939 7.06788 2.86716 7.63339 3.04695 7.81318Z"
    fill="currentColor"
  />
</svg>

<svg xmlns="http://www.w3.org/2000/svg" width="15" height="15" fill="none"><path fill="currentColor" fill-rule="evenodd" d="M12.07 1.767c.41-.548-.61-1.313-1.02-.765-.412.548.609 1.313 1.02.765m-3.677-.689a7.53 7.53 0 0 0-3.809.631c-1.198.547-2.257 1.444-2.796 2.71-.412.968-.77 1.862-.787 3.025-.016 1.154.304 2.525 1.13 4.484.48 1.137 1.909 1.617 3.008 1.88 1.27.304 2.67.383 3.525.266.701-.096 1.48-.246 2.135-.777 1.099-.893 2.102-1.902 2.7-2.958.605-1.067.827-2.247.223-3.386-.16-.3-.406-.376-.68-.46-.105-.033-.213-.066-.321-.113-1.1-.478-1.756-1.03-1.807-1.351-.048-.3.008-.514.067-.737.032-.12.064-.243.082-.383.02-.172.018-.576-.363-.781-.295-.16-.484-.47-.66-.759q-.064-.107-.128-.207c-.286-.438-.704-1-1.52-1.084M4.999 2.62c-1.034.472-1.873 1.212-2.29 2.191-.41.964-.695 1.699-.708 2.648-.014.956.25 2.179 1.052 4.081.339.803 1.569 1.117 2.319 1.296 1.177.282 2.45.345 3.157.248.684-.093 1.217-.219 1.64-.562 1.06-.862 1.952-1.778 2.46-2.675.306-.539.885-2.143 0-2.459-1.875-.668-2.367-1.32-2.639-1.974-.18-.436-.161-.89-.033-1.334.02-.066.038-.131.076-.19a2.4 2.4 0 0 1-.518-.517c-.086-.114-.168-.251-.253-.393-.243-.408-.512-.859-.972-.906A6.53 6.53 0 0 0 5 2.619m8.21 1.156c.232-.548-.754-1.139-1.127-.673-.5.625.82 1.39 1.126.673m1.158-1.515c.6.015.788-1.144.205-1.31-.764-.219-.98 1.291-.205 1.31m-.081 2.831c.578.009.76-.709.197-.812-.738-.135-.946.8-.197.812m-7.378-.804c-.439.38-.856-.135-.928-.55-.112-.64.357-1.168.968-.825.485.272.319 1.063-.04 1.375M4.945 5.882c.464-.464-.35-1.312-.83-.83-.282.28-.106.602.122.83a.5.5 0 0 0 .708 0m2.032.838c.335.67 1.511.072 1.017-.572a.54.54 0 0 0-.373-.206c-.409-.046-.858.35-.644.778m.011 2.005c.153.394.523.594.931.438.355-.135.413-.766.253-1.089-.149-.299-.532-.396-.835-.28-.352.136-.48.593-.351.925zm3.4.116c.37-.184 1.074-.013 1.074.471 0 .4-.503.905-.899.97-.382.065-.858-.306-.797-.705.048-.312.356-.603.623-.736m-2.821 2.002a.52.52 0 0 0-.453.034h-.001c-.205.118-.4.367-.438.607-.085.52.457.64.852.615.68-.044.538-1.056.04-1.256m-2.687.05a.5.5 0 0 0 .203-.578c-.153-.518-.758-.602-1.117-.185a.5.5 0 0 0 .026.68l.003.004.003.004c.222.276.638.368.882.075m-1.833-3.08c.284.285.554.338.937.246.624-.15.154-1.816-.937-1.186-.338.195-.18.76 0 .94" clip-rule="evenodd"/></svg>
